X: 149
T: Rose without Rue
N:"Moderate"
B:O'Neill's 149
Z:Transcribed by henrik.norbeck@mailbox.swipnet.se
M:C
L:1/8
K:G
D|D>GG>G G>FE>D|E>FGE D2 (Bc)|d>Bc>A B>GFG|A>FGE D2 (Bc)|
d>Bc>A B>GFG|A>FGE D3 C|B,>DE>F {A}G>FG>A|BGA>F G2||
(GA)|B>GEE E2 (FG)|A>FDD D2 (DC)|B,>DE>F {A}G>FGA|B2 A>G A2 GA|
B>GEE E2 (FG)|A>FDD D3 C|B,>DE>F {A}G>FG>A|BGA>F G3||


